X:598
T: "Die Versuchung"
N: Z1278
O: Europa, Mitteleuropa, Deutschland, Niederrhein
R: Natur und Welt
M: 6/8
L: 1/8
K: G
G | G2dB2G | AGAB2
d | c2BA3 | G2z3
B | cccBBA | B2^cd2
=c | B2AG2d | e2dc2
B | AAAA2B | G2z3

@@@ Tune index: 10356
